X:1
T:Title
%%score { ( 1 3 ) | ( 2 4 ) }
L:1/8
M:4/4
K:G
V:1 treble nm="Grand Piano"
V:3 treble 
V:2 bass 
V:4 bass 
V:1
 z4 z2[Q:1/4=100] D>D | [B,DG]>[B,DG] [G,DG]>F G2 G>A | [DB]>[GB] [FB]>[EB] [DB]2 B>c | %3
 d>e d>[DB] [^CA]2 E2 | A6 [FA]>[GB] | [Ac]>[Gc] [Fc]>[Ec] c2 B>A | [DB]>[GB] [FB]>[EB] [DB]2 B>B | %7
 A>B A>G F2 [^CE]2 |[M:3/4] D6 |[M:1/4] d>c |[M:4/4] z4 z2 [Ec]2[K:bass] | [DB]6 z2 | %12
 A>B A>B A2 e2 | d->[Fd-] [Fd-]>[Gd-] [Ad]2 B>c | d>e d>c B2 B>B | %15
 [Ec]>[Ec] [G,CE]>[G,CE] [CEA]2 [G,DF]>[G,CE] | [G,B,D]>[G,B,D] [G,DG]>[EAc] [DGB]2 [CFA]2 | %17
[M:3/4] [G,B,DG]6 |] %18
V:2
 z4 z2 D,>D, | G,,>G,, B,,>[D,A,C] [G,B,]2 [G,B,]>[G,C] | %2
 [G,,G,]>[G,,G,] [G,,G,]>[G,,G,] [G,,G,]2[K:treble] [G,DG]>[G,A,G] | %3
 [G,B,G]>[G,CG] [G,B,G]>[K:bass][G,,G,] [A,,E,]2 [^C,G,]2 | [D,F,D]6 [D,D]>[D,D] | %5
 [D,D]>[D,D] [D,D]>[D,D] [D,D]2 [D,G,D]>[D,F,D] | %6
 [G,,G,]>[G,,G,] [G,,G,]>[G,,G,] [G,,G,]2[K:treble] [G,DG]>[G,DG] | %7
 [A,DF]>[A,DF][K:bass] [F,A,D]>[G,B,E] [A,D]2 [A,,G,]2 |[M:3/4] [D,F,]6 |[M:1/4] [D,F,D]>[D,F,D] | %10
[M:4/4] [G,,G,]>[G,,G,] [G,,G,]>[G,,G,] [C,G,]2 [C,G,]2 | %11
 [G,,G,]>G,, B,,>D, z2[K:treble] [G,DG]>[G,DG] | [A,CG]>[A,CG] [A,CG]>[A,CG] [A,CG]2 [A,CG]2 | %13
 z z/ D/ A,>B, C2[K:treble] [G,G]>[G,A,G] | [G,B,G]>[G,CG] [G,B,G]>[G,EG] [G,DG]2 [G,G]>[G,=F] | %15
 [C,G,]>[C,G,] C,>C, z z/ G/ C,>C, | D,>D, B,,>C, D,2 D,2 |[M:3/4] G,,6 |] %18
V:3
 x8 | x8 | x8 | x8 | x8 | x8 | x8 | x8 |[M:3/4] x6 |[M:1/4] x2 | %10
[M:4/4] [DB]>[DB] [B,D]>[B,D] [CE]2 z z/[K:bass] [C,G,]/ | z z/ G,/ G,>G, G,2 B>B | x8 | %13
 [DF]2 z2 z4 | x8 | x8 | x8 |[M:3/4] x6 |] %18
V:4
 x8 | x8 | x6[K:treble] x2 | x7/2[K:bass] x9/2 | x8 | x8 | x6[K:treble] x2 | x2[K:bass] x6 | %8
[M:3/4] x6 |[M:1/4] x2 |[M:4/4] x8 | x6[K:treble] x2 | x8 | D,6[K:treble] z2 | x8 | z4 C,2 z2 | %16
 x8 |[M:3/4] x6 |] %18

